modules/zondicons/icons/watch.svg

<?xml version="1.0" encoding="UTF-8" standalone="no"?>
<svg width="20px" height="20px" viewBox="0 0 20 20" version="1.1" xmlns="http://www.w3.org/2000/svg" xmlns:xlink="http://www.w3.org/1999/xlink">
    <!-- Generator: Sketch 3.7.2 (28276) - http://www.bohemiancoding.com/sketch -->
    <title>watch</title>
    <desc>Created with Sketch.</desc>
    <defs></defs>
    <g id="Page-1" stroke="none" stroke-width="1" fill="none" fill-rule="evenodd">
        <g id="watch" fill="#000000">
            <path d="M11,9 L11,7 L9,7 L9,10 L9,11 L13,11 L13,9 L11,9 Z M14.8207525,15.0754849 C16.163095,13.8001046 17,11.9977871 17,10 C17,8.00221286 16.163095,6.19989536 14.8207525,4.92451506 L14,0 L6,0 L5.17924749,4.92451506 C3.83690502,6.19989536 3,8.00221286 3,10 C3,11.9977871 3.83690502,13.8001046 5.17924749,15.0754849 L6,20 L14,20 L14.8207525,15.0754849 Z M10,15 C12.7614237,15 15,12.7614237 15,10 C15,7.23857625 12.7614237,5 10,5 C7.23857625,5 5,7.23857625 5,10 C5,12.7614237 7.23857625,15 10,15 Z" id="Combined-Shape"></path>
        </g>
    </g>
</svg>

<svg width="20" height="20" viewBox="0 0 20 20" xmlns="http://www.w3.org/2000/svg"><path d="M11 9V7H9v4h4V9h-2zm3.82 6.075A6.98 6.98 0 0 0 17 10a6.98 6.98 0 0 0-2.18-5.075L14 0H6l-.82 4.925A6.98 6.98 0 0 0 3 10c0 1.998.837 3.8 2.18 5.075L6 20h8l.82-4.925zM10 15a5 5 0 1 0 0-10 5 5 0 0 0 0 10z" fill="#000" fill-rule="evenodd"/></svg>
